X:1
T: Doctor Laing of Fochabers
C:William Marshall
R:Reel
Q: 232
K:G
M:4/4
L:1/8
D2|G4 B2 G2|d2 G2 cB AG|D2 G2 cB AG|F2 A2 A2 B2|
G4 B2 G2|d2 G2 cB AG|ed ef gf ed|B2 G2 G4|
b4 g2 ab|c'2 b2 a2 g2|fg ab c'b ag|f2 a2 a2 f2|
g4 d2 ef|gf ed ed cB|c3e dB AG|D2 G2 G4|
DG FG BG FG|fG FG BG FG|DG FG cB AG|F2 A2 A2 B2|
DG FG BG FG|fG FG BG FG|ed ef ge dc|B2 G2 G4|
ga ba gf ed|ef gf ed cB|cd ed cB AG|F2 A2 A4|
ga ba gf ed|ef gf ed cB|c3e dB AG|D2 G2 G4|
ga bc' d'2 d2|ef ga b2 B2|cd ef g2 G2|AG FE D2 BA|
G3A G2 B,2|C2 D2 E2 D2|d3e dc BA|B2 G2 G2||
